Dominus_Funeral/22/places/folder-remote.svg

<svg xmlns="http://www.w3.org/2000/svg" width="24" height="24" version="1"><defs><linearGradient id="a"><stop offset="0"/><stop offset="1" stop-opacity="0"/></linearGradient></defs><path d="M18.254 17.175l-3.563-3.563-.22-.772a9.9 9.9 0 0 1 3.22-10.357h4.139a20.136 20.136 0 0 0-3.576 14.692zm-15.46 4.354V17.38a9.9 9.9 0 0 1 10.357-3.22l.771.22 3.566 3.566A20.145 20.145 0 0 0 2.793 21.53zM9.3 8.222a4.55 4.55 0 0 1 .249-3.453 4.55 4.55 0 0 1 2.6-2.286h3.935a10.975 10.975 0 0 0-2.894 9.63zm-6.508 3.617a4.55 4.55 0 0 1 2.286-2.6c1.073-.532 2.285-.615 3.458-.243l3.884 3.884a10.973 10.973 0 0 0-9.628 2.894zM7.24 7.7a5.61 5.61 0 0 0-2.643.566A5.66 5.66 0 0 0 2.793 9.68V3.252zm.774-.766l-4.45-4.45h6.426a5.65 5.65 0 0 0-1.414 1.803c-.413.833-.585 1.735-.562 2.647z" fill="#1a1a1a"/></svg>

<?xml version="1.0" encoding="UTF-8" standalone="no"?>
<svg
   xmlns:dc="http://purl.org/dc/elements/1.1/"
   xmlns:cc="http://creativecommons.org/ns#"
   xmlns:rdf="http://www.w3.org/1999/02/22-rdf-syntax-ns#"
   xmlns:svg="http://www.w3.org/2000/svg"
   xmlns="http://www.w3.org/2000/svg"
   xmlns:sodipodi="http://sodipodi.sourceforge.net/DTD/sodipodi-0.dtd"
   xmlns:inkscape="http://www.inkscape.org/namespaces/inkscape"
   width="24"
   height="24"
   version="1"
   id="svg4"
   sodipodi:docname="folder-remote.svg"
   inkscape:version="0.92.4 (5da689c313, 2019-01-14)">
  <metadata
     id="metadata10">
    <rdf:RDF>
      <cc:Work
         rdf:about="">
        <dc:format>image/svg+xml</dc:format>
        <dc:type
           rdf:resource="http://purl.org/dc/dcmitype/StillImage" />
        <dc:title></dc:title>
      </cc:Work>
    </rdf:RDF>
  </metadata>
  <defs
     id="defs8" />
  <sodipodi:namedview
     pagecolor="#ffffff"
     bordercolor="#666666"
     borderopacity="1"
     objecttolerance="10"
     gridtolerance="10"
     guidetolerance="10"
     inkscape:pageopacity="0"
     inkscape:pageshadow="2"
     inkscape:window-width="1112"
     inkscape:window-height="480"
     id="namedview6"
     showgrid="false"
     inkscape:zoom="9.8333333"
     inkscape:cx="1.0677966"
     inkscape:cy="12"
     inkscape:window-x="0"
     inkscape:window-y="25"
     inkscape:window-maximized="0"
     inkscape:current-layer="svg4" />
  <path
     d="M 18.25,17.18 14.7,13.6 14.48,12.83 A 9.9,9.9 0 0 1 17.7,2.48 h 4.14 a 20.14,20.14 0 0 0 -3.58,14.7 z M 2.8,21.52 v -4.15 a 9.9,9.9 0 0 1 10.36,-3.22 l 0.77,0.22 3.57,3.57 A 20.14,20.14 0 0 0 2.8,21.52 Z M 9.3,8.23 a 4.55,4.55 0 0 1 0.25,-3.46 4.55,4.55 0 0 1 2.6,-2.29 h 3.93 a 10.97,10.97 0 0 0 -2.89,9.63 z m -6.5,3.6 A 4.55,4.55 0 0 1 5.08,9.23 4.58,4.58 0 0 1 8.54,9 l 3.88,3.88 a 10.97,10.97 0 0 0 -9.63,2.9 z M 7.23,7.7 A 5.61,5.61 0 0 0 4.59,8.27 5.66,5.66 0 0 0 2.79,9.68 V 3.25 Z M 8,6.93 3.56,2.48 H 10 A 5.65,5.65 0 0 0 8.59,4.28 5.6,5.6 0 0 0 8,6.94 Z"
     id="path2"
     inkscape:connector-curvature="0"
     style="fill:#1a1a1a" />
</svg>
